assets/img/braze_icons/lock-keyhole-circle.svg

<svg fill="none" height="24" viewBox="0 0 24 24" width="24" xmlns="http://www.w3.org/2000/svg"><path clip-rule="evenodd" d="m12 1c-6.07513 0-11 4.92487-11 11 0 6.0751 4.92487 11 11 11 6.0751 0 11-4.9249 11-11 0-6.07513-4.9249-11-11-11zm1.6276 11.7907c-.0019.0865.0334.1924.104.404l.9174 2.7523c.1185.3555.1778.5333.1422.6748-.0311.1238-.1084.2311-.216.2998-.123.0784-.3104.0784-.6851.0784h-3.7802c-.3747 0-.56207 0-.68506-.0784-.10766-.0687-.18497-.176-.21607-.2998-.03553-.1415.02372-.3193.14222-.6748l.91741-2.7523c.0706-.2116.1059-.3175.104-.404-.0019-.0911-.0141-.1388-.056-.2196-.0399-.0769-.1464-.1761-.35959-.3744-.58862-.5477-.95681-1.3292-.95681-2.1967 0-1.65685 1.3431-3 3-3s3 1.34315 3 3c0 .8675-.3682 1.649-.9568 2.1967-.2132.1983-.3197.2975-.3596.3744-.0419.0808-.0541.1285-.056.2196z" fill="#801ed7" fill-rule="evenodd"/></svg>

<svg width="24" height="24" viewBox="0 0 24 24" fill="none" xmlns="http://www.w3.org/2000/svg">
<path fill-rule="evenodd" clip-rule="evenodd" d="M12 1C5.92487 1 1 5.92487 1 12C1 18.0751 5.92487 23 12 23C18.0751 23 23 18.0751 23 12C23 5.92487 18.0751 1 12 1ZM13.6276 12.7907C13.6257 12.8772 13.661 12.9831 13.7316 13.1947L14.649 15.947C14.7675 16.3025 14.8268 16.4803 14.7912 16.6218C14.7601 16.7456 14.6828 16.8529 14.5752 16.9216C14.4522 17 14.2648 17 13.8901 17H10.1099C9.7352 17 9.54783 17 9.42484 16.9216C9.31718 16.8529 9.23987 16.7456 9.20877 16.6218C9.17324 16.4803 9.23249 16.3025 9.35099 15.947L10.2684 13.1947C10.339 12.9831 10.3743 12.8772 10.3724 12.7907C10.3705 12.6996 10.3583 12.6519 10.3164 12.5711C10.2765 12.4942 10.17 12.395 9.95681 12.1967C9.36819 11.649 9 10.8675 9 10C9 8.34315 10.3431 7 12 7C13.6569 7 15 8.34315 15 10C15 10.8675 14.6318 11.649 14.0432 12.1967C13.83 12.395 13.7235 12.4942 13.6836 12.5711C13.6417 12.6519 13.6295 12.6996 13.6276 12.7907Z" fill="#801ED7"/>
</svg>
